X:1
T:Title
%%score { ( 1 3 4 ) | ( 2 5 ) }
L:1/8
M:4/4
K:Eb
V:1 treble nm="Grand Piano"
V:3 treble 
V:4 treble 
V:2 bass 
V:5 bass 
V:1
 z4 z2[Q:1/4=100] G>F | E>G c>B A2 [FA]>[EG] | [DF]>[FA] [Ad]>[DAc] [EGB]4 | c>e d>c [GB]>G F>E | %4
 A2 G2 [DF]2 [DG]>[DF] | E>G c>B A2 [FA]>[EG] | [DF]>[FA] [Ad]>[DAc] [EGB]4 | c>e d>c B>c d<e | %8
 G2 [DF]2 E4 | z4 z/ e3/2- e2 | c>c e>e [GB]4 | [EG]>[EG] [FB]>[FB] [Ee]>[Ge] [Af]>[Ge] | z4 B4 | %13
 z4 z/ e3/2- e2 | c>c e>e [GB]4 | c>e d>c B>c d<e |[M:3/4] G2 [DF]2 E2 |] %17
V:2
 z4 z2 [E,B,E]>[E,A,E] | [E,G,]>[E,B,E] [E,G,E]>[E,G,E] [F,B,D]2 [B,,B,]>[B,,B,] | %2
 [B,,B,]>[B,,B,] [B,,B,]>B,, E,4 | %3
 [A,EA]>[A,CA] [A,CA]>[A,EA][K:bass] [E,E]>[E,B,E] [A,B,D]>[G,B,] | %4
 [F,B,D]2 [E,B,E]2 [B,,B,]2 [B,,B,]>[B,,A,] | %5
 [E,G,]>[E,B,E] [E,G,E]>[E,G,E] [F,B,D]2 [B,,B,]>[B,,B,] | [B,,B,]>[B,,B,] [B,,B,]>B,, E,4 | %7
 [A,EA]>[A,CA] [A,CA]>[A,EA] [B,EG]>[=A,EF] [_A,B,F]<[K:bass][G,B,E] | [B,E]2 [B,,A,]2 [E,G,]4 | %9
 [E,E]>[E,E] [E,B,]>[E,E][K:treble] [A,EA]<[A,CA] [A,C]<[A,C] | %10
 [A,EA]>[A,EA][K:bass] [A,,CA]>[A,,CA] [E,E]4 | %11
 [E,B,]>[E,B,] [D,B,]>[D,B,] [C,G,]>[C,C] [D,B,]>[E,B,] | %12
 [F,B,]2 [F,=A,]2 z z/[K:treble] C/ (3DEF | E,>E, E,>E,[K:treble] [A,EA]<[A,CA] [A,C]<[A,C] | %14
 [A,EA]>[A,EA][K:bass] [A,,CA]>[A,,CA] [E,E]4 | %15
 [A,EA]>[A,CA] [A,CA]>[A,EA] [B,EG]>[=A,EF] [_A,B,F]<[K:bass][G,B,E] | %16
[M:3/4] [B,E]2 [B,,A,]2 [E,G,]2 |] %17
V:3
 x8 | x8 | x8 | x8 | x8 | x8 | x8 | x8 | x8 | [GB]>[GB] [EG]>[GB] .c2 A<A | x8 | x8 | %12
 [Fd]2 [Ec]2 z z/ E/ (3FGA | [EGB]>[EGB] [B,EG]>[EGB] .c2 A<A | x8 | x8 |[M:3/4] x6 |] %17
V:4
 x8 | x8 | x8 | x8 | x8 | x8 | x8 | x8 | x8 | x8 | x8 | x8 | z4 [B,D]2 z2 | x8 | x8 | x8 | %16
[M:3/4] x6 |] %17
V:5
 x8 | x8 | x8 | x4[K:bass] x4 | x8 | x8 | x8 | x13/2[K:bass] x3/2 | x8 | x4[K:treble] x4 | %10
 x2[K:bass] x6 | x8 | z4 B,,4[K:treble] | x4[K:treble] x4 | x2[K:bass] x6 | x13/2[K:bass] x3/2 | %16
[M:3/4] x6 |] %17

